packages/foundations/assets/icons/functional/images/transportation/airplane_14.svg

<svg width="14" height="14" viewBox="0 0 14 14" fill="none" xmlns="http://www.w3.org/2000/svg">
<g clip-path="url(#clip0_187_822)">
<path fill-rule="evenodd" clip-rule="evenodd" d="M6.16576 2.47825C6.80797 3.11629 7.4494 3.75496 8.09002 4.39425L8.30552 4.32718C9.95499 3.79664 11.8863 4.35882 12.4588 5.65393C12.8716 6.58758 12.3433 7.59939 11.3003 7.97641L9.41186 8.57047L7.93317 11.2722C7.82893 11.4455 7.70937 11.576 7.47793 11.69C6.4342 12.2041 5.70378 11.4954 5.70378 10.7801C5.69967 10.4335 5.69646 10.0868 5.69416 9.74017L5.0393 9.9422C3.96896 10.2922 2.76002 9.80434 2.35564 8.65214C2.05267 7.80327 1.75058 6.95416 1.44938 6.1048C1.31457 5.65049 1.44938 5.12989 1.97495 4.86295C2.02698 4.83694 2.08002 4.81243 2.13406 4.78942C2.55035 4.60417 2.97515 4.72722 3.27099 5.00436L3.96166 5.68787L4.88472 5.39875L4.08926 3.7728C3.8345 3.1772 4.14524 2.40813 4.82194 2.24457C4.89858 2.22212 4.97557 2.20056 5.05291 2.17987C5.41808 2.07674 5.82748 2.13745 6.16576 2.47825ZM8.72922 5.66152C7.14472 6.15672 5.56132 6.65302 3.97902 7.15042C3.75928 7.21929 3.41947 7.21929 3.22946 6.93247C3.31381 7.19049 3.46251 7.60816 3.67556 8.18546C3.78143 8.48712 4.14453 8.78932 4.6159 8.60781C5.1383 8.44797 5.66003 8.28744 6.1811 8.12621C6.60252 7.99654 7.08102 8.28834 7.08693 8.78932C7.09125 9.15502 7.09412 9.52074 7.09556 9.88647L8.31874 7.65151C8.37667 7.54561 8.43393 7.43462 8.72349 7.3195C9.1824 7.17232 9.86045 6.95979 10.7576 6.68192C11.1361 6.56586 11.2302 6.42468 11.1688 6.20753C11.1074 5.99038 10.7705 5.77118 10.3992 5.65095C9.94075 5.50253 9.24012 5.50253 8.72922 5.66152Z" fill="#1A1C1F"/>
</g>
<defs>
<clipPath id="clip0_187_822">
<rect width="14" height="14" fill="white"/>
</clipPath>
</defs>
</svg>

<svg xmlns="http://www.w3.org/2000/svg" width="14" height="14" fill="none"><g clip-path="url(#a)"><path fill="#1A1C1F" fill-rule="evenodd" d="M6.166 2.478 8.09 4.394l.216-.067c1.649-.53 3.58.032 4.153 1.327.413.934-.116 1.945-1.159 2.322l-1.888.594-1.479 2.702a1 1 0 0 1-.455.418c-1.044.514-1.774-.195-1.774-.91q-.006-.52-.01-1.04l-.655.202c-1.07.35-2.279-.138-2.683-1.29l-.907-2.547c-.134-.455 0-.975.526-1.242q.078-.038.16-.074c.415-.185.84-.062 1.136.215l.69.684.924-.29-.796-1.625c-.255-.596.056-1.365.733-1.528q.116-.034.23-.065a1.09 1.09 0 0 1 1.114.298m2.563 3.184q-2.376.743-4.75 1.488c-.22.07-.56.07-.75-.218q.127.387.447 1.253a.707.707 0 0 0 .94.423q.783-.24 1.565-.482c.422-.13.9.162.906.663l.009 1.097 1.223-2.234c.058-.106.115-.217.404-.333q.689-.221 2.035-.637c.378-.116.472-.257.41-.474-.06-.218-.397-.437-.769-.557-.458-.148-1.159-.148-1.67.01" clip-rule="evenodd"/></g><defs><clipPath id="a"><path fill="#fff" d="M0 0h14v14H0z"/></clipPath></defs></svg>
